!!!OTL: Was die Gans hat (283), S. 597
!!!id: T0473
**kern
*clefG2
*k[f#]
*G:
{8d
=1
8g
8g
8g
8g
=2
8g
16f#
16g
8a
8d
=3
4b
4b
=4
4a}
4r
=5
{8dd
8dd
8dd
8dd
=6
8dd
8ee
8a
16a
16b
=7
8cc
8cc
8cc
8cc
=8
8b
8dd
8g}
=9
{8g
=10
8g
8d
8e
8f#
=11
4g}
8r
=12
{8g
=13
8g
8d
8e
8f#
=14
4g}
8r
=15
{16g
16g
=16
4cc
8cc
8cc
=17
4b
8b
8b
=18
4a
8b
8a
=19
4g
4b
=20
4dd}
8r
=21
{16b
16dd
=22
4cc
8cc
8cc
=23
4b
8b
8b
=24
4a
8b
8a
=25
4g}
8r
==
*-
!!!minrhy: 16
!!!meters: 2/4 ]  ZZ[6
!!!cut: Was die Gans hat (283), S. 597
!!!reg: Luxemburg
!!!trd: Singendes Volk, Esch-Alzette, 1937 posth.
!!!rhy1: X_  X_X_X_X_  X_XXX_X_  X__X__  X__0__
!!!rhy2: X_X_X_X_  X_X_X_XX  X_X_X_X_  X_X_X_
!!!key: T0473  16  G 2/4 ]  ZZ[6
!!!mod: HEPTATONIK IONISCH]  AMBITUS[9
!!!kad: 211151
!!!akz: 1132_5543_11_11_43215_4321_
!!!fot: 'a__b__c__c__d__dv_
!!!for: 'a__b__aw_aw_c__cw_
!!!fok: '/__Sd_V__V__~a_\__
!! PHRAS[VORWIEGEND AUFTAKTIG]
!!!fkt: ???
!!!bem: Hesperingen, fff Besch, 14.5.1934
!! THILL; Mathias
!! PR[53] 2K[0] 2G[0] 3K[9] 3G[2] 4A[4] 4Ü[0] 5A[0] 6K[0] 6G[0]
!! 7K[0] 7G[0] 8A[0] MEHR[0] SI[16] ABS[45] SR[0] SP[16]
!! ST[8] 2k[9] 2g[18] 3k[4] 3g[0] 4d[0] 4ü[0] 5d[0] 6k[0] 6g[0]
!! 7k[0] 7g[0] 8d[0] mehr[0] si[31] dm[-15] sr[27] sp[4]
!! 1F[4] 2F[91] 3F[4] 4F[0] LF[0] 2P[0] 3P[0] 4P[0] TRI[0] DF[3] AB[47]
!! TF[0] U3K[0] U3[0] U4[0] U4Ü[0] U5[0] U6K[0] U6[0] U7K[0] U7[0]
!! N1[0] N2K[0] N2[0] N3K[0] N3[30] N4[13] N4Ü[0] N5[35] N6K[0] N6[13]
!!!n7k: 0] N7[4] O1[4] O2K[0] O2[0] O3K[0] O3[0] HÖ[0
